assets/Love letter/Flat/love_letter_flat.svg

<svg width="32" height="32" viewBox="0 0 32 32" fill="none" xmlns="http://www.w3.org/2000/svg">
<path d="M2 8C2 6.89543 2.89543 6 4 6H28C29.1046 6 30 6.89543 30 8V24C30 25.1046 29.1046 26 28 26H4C2.89543 26 2 25.1046 2 24V8Z" fill="#B4ACBC"/>
<path d="M3.05699 7.8758L10.7773 13.0839L10.2226 13.9159L3.00001 9.04045L3 22.9487L12.2315 17.0781L12.7684 17.9218L3.05024 24.102C3.20225 24.621 3.68186 25 4.25 25H27.75C28.3241 25 28.8078 24.613 28.9544 24.0856L19.2315 17.9218L19.7684 17.0781L29 22.9296V9.04037L21.7773 13.9159L21.2226 13.0839L28.943 7.87573C28.7839 7.36822 28.31 7 27.75 7H4.25001C3.69001 7 3.21602 7.36825 3.05699 7.8758Z" fill="#E1D8EC"/>
<path d="M12 9C13.6943 9 14.9293 9.91861 15.5493 10.5107C15.7904 10.7409 16.2096 10.7409 16.4507 10.5107C17.0707 9.91861 18.3057 9 20 9C22.5 9 24 11 24 14C24 18 17.5 23 16 23C14.5 23 8 18 8 14C8 11 9.5 9 12 9Z" fill="#F92F60"/>
</svg>

<svg xmlns="http://www.w3.org/2000/svg" width="32" height="32" fill="none"><path fill="#B4ACBC" d="M2 8a2 2 0 0 1 2-2h24a2 2 0 0 1 2 2v16a2 2 0 0 1-2 2H4a2 2 0 0 1-2-2V8Z"/><path fill="#E1D8EC" d="m3.057 7.876 7.72 5.208-.554.832L3 9.04V22.95l9.232-5.87.536.843-9.718 6.18a1.25 1.25 0 0 0 1.2.898h23.5a1.25 1.25 0 0 0 1.204-.914l-9.723-6.164.537-.844L29 22.93V9.04l-7.223 4.876-.554-.832 7.72-5.208A1.25 1.25 0 0 0 27.75 7H4.25a1.25 1.25 0 0 0-1.193.876Z"/><path fill="#F92F60" d="M12 9c1.694 0 2.93.919 3.55 1.51.24.23.66.23.9 0C17.07 9.92 18.307 9 20 9c2.5 0 4 2 4 5 0 4-6.5 9-8 9s-8-5-8-9c0-3 1.5-5 4-5Z"/></svg>
